X:37
T:Doctor Peter's Hornpipe
B:NFID.194c
037doct_p
S:DOD
N:Bottom note of the double stop ([AF], [ec]) is the
melody note.
L:1/8
M:C
R:hornpipe
Q:270
K:D
cB|A<D [AF]A BG (3Bcd|A<D [AF]A d2cd|e<A[ec]e fd (3fga|\
edcB AGFG|
A<D [AF]A BG (3Bcd|A<D [AF]A d2cd|e<A[ec]e faec|d2f2d2:|
cd|e<A [ec]e fd (3fga|e<Ace f2f^e|=ea^gf edcB|(3ABA GB A2G2|
FEFA dfaf|g2b2g2ag|(3faf df (3efe ce|dfec d2:|

%%%

